teeny/solid/mov.svg

<svg width="15" height="15" viewBox="0 0 15 15" fill="none" xmlns="http://www.w3.org/2000/svg">
<path d="M7 7.5C7 7.22386 7.22386 7 7.5 7C7.77614 7 8 7.22386 8 7.5V9.5C8 9.77614 7.77614 10 7.5 10C7.22386 10 7 9.77614 7 9.5V7.5Z" fill="black"/>
<path fill-rule="evenodd" clip-rule="evenodd" d="M1 1.5C1 0.671573 1.67157 0 2.5 0H10.7071L14 3.29289V13.5C14 14.3284 13.3284 15 12.5 15H2.5C1.67157 15 1 14.3284 1 13.5V1.5ZM7.5 6C6.67157 6 6 6.67157 6 7.5V9.5C6 10.3284 6.67157 11 7.5 11C8.32843 11 9 10.3284 9 9.5V7.5C9 6.67157 8.32843 6 7.5 6ZM2.85355 6.14646C2.71055 6.00346 2.4955 5.96068 2.30866 6.03807C2.12182 6.11547 2 6.29778 2 6.50001V11H3V7.70712L3.5 8.20712L4 7.70712V11H5V6.50001C5 6.29778 4.87818 6.11547 4.69134 6.03807C4.5045 5.96068 4.28945 6.00346 4.14645 6.14646L3.5 6.79291L2.85355 6.14646ZM10 6H11V9.29289L11.5 9.79289L12 9.29289V6H13V9.70711L11.8536 10.8536C11.6583 11.0488 11.3417 11.0488 11.1464 10.8536L10 9.70711V6Z" fill="black"/>
</svg>

<svg viewBox="0 0 15 15" xmlns="http://www.w3.org/2000/svg"><g><path d="M7 7.5c0-.28.22-.5.5-.5 .27 0 .5.22.5.5v2c0 .27-.23.5-.5.5 -.28 0-.5-.23-.5-.5v-2Z"/><path fill-rule="evenodd" d="M1 1.5C1 .67 1.67 0 2.5 0h8.2l3.29 3.29v10.2c0 .82-.68 1.5-1.5 1.5h-10c-.83 0-1.5-.68-1.5-1.5v-12ZM7.5 6C6.67 6 6 6.67 6 7.5v2c0 .82.67 1.5 1.5 1.5 .82 0 1.5-.68 1.5-1.5v-2C9 6.67 8.32 6 7.5 6Zm-4.65.14c-.15-.15-.36-.19-.55-.11 -.19.07-.31.25-.31.46v4.49h1v-3.3l.5.5 .5-.5v3.29h1v-4.5c0-.21-.13-.39-.31-.47 -.19-.08-.41-.04-.55.1l-.65.64 -.65-.65Zm7.14-.15h1v3.29l.5.5 .5-.5v-3.3h1v3.7l-1.15 1.14c-.2.19-.52.19-.71 0L9.98 9.67V5.96Z"/></g></svg>
